X: 18955
T: Inis Bearachain, The
R: jig
M: 6/8
K: Dmajor
DFA BAF|AFD EDB,|DFA Bdf|edB ABd|
efd edB|AFD EDB,|A,B,D FED|EFA Bcd:|
efd edB|AFA Bcd|edB ABd|efa fed|
edf edB|AFA Bcd|edB ABd|BAF EFA|
Bdf edB|AFA Bcd|edB ABd|efa baf|
edf edB|AFD EDB,|A,B,D FED|EFA Bcd:|

